X: 106
T:Morgiana in Spain. JaW.106
M:6/8
L:1/8
Q:120
S:James Winder Ms, Lancashire, 1835-41
R:Jig
O:England
A:Wyresdale,Lancashire
H:1/8
Z:vmp.Chris Partington, Aug 2004
K:C
E2F G2c|E2F G2c|A2A d2c|Bdc BAG|!
E2F G2c|E2F G2c|E2d BAB|c2c "cr"c3:|!
|d2cB2e|d2c B2G|d2c B2A|G2G G2e|!
d2c B2e|d2c B2e|dec BcA|(GA)F (EF)D|!
E2F G2c|E2F G2c|A2A d2c|Bdc BAG|!
E2F G2c|E2F G2c|E2d BAB|c2c "cr"c3|]
